T: Braes Of Auchtertyre, The
M: 4/4
L: 1/8
K: Cmaj
(3CCC C2 EGGB | c2 ed cAAG | (3AAA AG A2 Aa | gecd ed d2 |CB, (3CDE ~G3 A | cded cA (3AAA | (3ABc Gc FdEc | edcB c3 :|e ~g3 gedc | fedc eccG | (3AAA AG (3AAA Aa | gecd ed (3ddd |egga g ~e3 | fedc e ~c3 | AcGc FdEc | edcB c3 :|
